packages/foundations/assets/icons/functional/images/audio & video/play_16.svg

<svg width="16" height="16" viewBox="0 0 16 16" fill="none" xmlns="http://www.w3.org/2000/svg">
<g clip-path="url(#clip0_184_364)">
<path fill-rule="evenodd" clip-rule="evenodd" d="M4.828 3.20074C4.98451 3.20191 5.13695 3.25075 5.265 3.34074L11.422 6.90074C11.782 7.15074 12 7.55574 12 7.99274C12 8.42974 11.781 8.83574 11.422 9.08574L5.25 12.6597C5.13021 12.7417 4.99038 12.7894 4.84551 12.7978C4.70063 12.8063 4.5562 12.7751 4.4277 12.7077C4.2992 12.6403 4.1915 12.5391 4.11615 12.4151C4.0408 12.2911 4.00064 12.1489 4 12.0037L4.001 4.02774C4.001 3.57574 4.391 3.20074 4.829 3.20074H4.828ZM5.608 5.48074V10.5057L10.173 7.99274L5.608 5.48074Z" fill="#1A1C1F"/>
</g>
<defs>
<clipPath id="clip0_184_364">
<rect width="16" height="16" fill="white"/>
</clipPath>
</defs>
</svg>

<svg xmlns="http://www.w3.org/2000/svg" width="16" height="16" fill="none"><g clip-path="url(#a)"><path fill="#1A1C1F" fill-rule="evenodd" d="M4.828 3.2a.77.77 0 0 1 .437.14l6.157 3.56c.36.25.578.656.578 1.093s-.219.843-.578 1.093L5.25 12.66A.798.798 0 0 1 4 12.004l.001-7.976c0-.452.39-.827.828-.827zm.78 2.28v5.026l4.565-2.513z" clip-rule="evenodd"/></g><defs><clipPath id="a"><path fill="#fff" d="M0 0h16v16H0z"/></clipPath></defs></svg>
